assets/icons/24px/outline/heartbeat-monitor-24px.svg

<svg width="24" height="24" viewBox="0 0 24 24" fill="none" xmlns="http://www.w3.org/2000/svg">
<path d="M5.8407 15.9091L4.89478 16.2335C5.03937 16.6551 5.44548 16.9301 5.89061 16.9078C6.33573 16.8856 6.7124 16.5715 6.81424 16.1376L5.8407 15.9091ZM8.40116 5L9.3869 4.83174C9.30685 4.36274 8.90744 4.01509 8.43189 4.00047C7.95634 3.98585 7.53633 4.30831 7.42762 4.7715L8.40116 5ZM10.9616 20L9.97588 20.1683C10.0542 20.6271 10.4388 20.9713 10.9035 20.9983C11.3682 21.0254 11.7901 20.7282 11.9212 20.2815L10.9616 20ZM14.1622 9.09091L15.1166 8.79225C14.985 8.37181 14.5938 8.087 14.1532 8.09095C13.7127 8.09489 13.3267 8.38666 13.2027 8.80939L14.1622 9.09091ZM16.7227 17.2727L15.7683 17.5714C15.8964 17.9806 16.271 18.2626 16.6997 18.2725C17.1283 18.2823 17.5156 18.0178 17.6623 17.6149L16.7227 17.2727ZM21 13C21.5523 13 22 12.5523 22 12C22 11.4477 21.5523 11 21 11V13ZM3 11C2.44772 11 2 11.4477 2 12C2 12.5523 2.44772 13 3 13V11ZM4.96341 13.3512L4.01749 13.6756L4.96341 13.3512ZM4.36699 12.1862L3.78579 13L4.36699 12.1862ZM18.7696 12.1808L19.3431 13L19.3431 13L18.7696 12.1808ZM6.81424 16.1376L9.3747 5.2285L7.42762 4.7715L4.86715 15.6806L6.81424 16.1376ZM7.41542 5.16826L9.97588 20.1683L11.9474 19.8317L9.3869 4.83174L7.41542 5.16826ZM11.9212 20.2815L15.1218 9.37243L13.2027 8.80939L10.0021 19.7185L11.9212 20.2815ZM13.2078 9.38957L15.7683 17.5714L17.677 16.9741L15.1166 8.79225L13.2078 9.38957ZM17.6623 17.6149L19.1035 13.6578L17.2243 12.9734L15.783 16.9305L17.6623 17.6149ZM20.0431 13H21V11H20.0431V13ZM6.78661 15.5847L5.90932 13.0267L4.01749 13.6756L4.89478 16.2335L6.78661 15.5847ZM3.07158 11H3V13H3.07158V11ZM5.90932 13.0267C5.80486 12.7222 5.70084 12.4143 5.58234 12.1648C5.45287 11.8922 5.26698 11.6002 4.94818 11.3725L3.78579 13C3.72776 12.9586 3.72819 12.9227 3.77579 13.0229C3.83437 13.1462 3.89818 13.3277 4.01749 13.6756L5.90932 13.0267ZM3.07158 13C3.43934 13 3.63169 13.0015 3.76735 13.0169C3.87759 13.0294 3.84382 13.0414 3.78579 13L4.94818 11.3725C4.62939 11.1448 4.2928 11.0637 3.99297 11.0297C3.71856 10.9985 3.39358 11 3.07158 11V13ZM19.1035 13.6578C19.227 13.3186 19.2929 13.1421 19.3524 13.0223C19.4007 12.9251 19.4004 12.9599 19.3431 13L18.1961 11.3616C17.8806 11.5825 17.6932 11.8667 17.5611 12.1327C17.4403 12.376 17.3324 12.6766 17.2243 12.9734L19.1035 13.6578ZM20.0431 11C19.7272 11 19.408 10.9985 19.1379 11.0288C18.8428 11.0619 18.5116 11.1407 18.1961 11.3616L19.3431 13C19.2858 13.0401 19.253 13.0285 19.3608 13.0164C19.4938 13.0015 19.6821 13 20.0431 13V11Z" fill="white"/>
</svg>

<svg width="24" height="24" fill="none" xmlns="http://www.w3.org/2000/svg"><path d="M5.84 15.91l-.945.323a1 1 0 0 0 1.92-.095l-.974-.229zM8.402 5l.986-.168a1 1 0 0 0-1.96-.06L8.402 5zm2.56 15l-.985.168a1 1 0 0 0 1.945.114l-.96-.282zm3.201-10.91l.955-.298a1 1 0 0 0-1.914.017l.96.282zm2.56 8.183l-.954.298a1 1 0 0 0 1.894.044l-.94-.342zM21 13a1 1 0 1 0 0-2v2zM3 11a1 1 0 1 0 0 2v-2zm1.963 2.351l-.946.325.946-.325zm-.596-1.165L3.786 13l.581-.814zm14.403-.005l.573.819-.573-.82zM6.814 16.138l2.56-10.91-1.946-.457-2.56 10.91 1.946.457zm.601-10.97l2.56 15 1.972-.336-2.56-15-1.972.336zm4.506 15.114l3.2-10.91-1.918-.563-3.2 10.91 1.918.563zM13.208 9.39l2.56 8.181 1.909-.597-2.56-8.182-1.91.598zm4.454 8.225l1.442-3.957-1.88-.685-1.441 3.957 1.88.685zM20.043 13H21v-2h-.957v2zM6.787 15.585l-.878-2.558-1.892.649.878 2.557 1.892-.648zM3.072 11H3v2h.072v-2zm2.837 2.027c-.104-.305-.208-.613-.327-.862a1.978 1.978 0 0 0-.634-.792L3.786 13c-.058-.041-.058-.077-.01.023a7.2 7.2 0 0 1 .241.653l1.892-.65zM3.072 13c.367 0 .56.002.695.017.11.012.077.024.019-.017l1.162-1.627a1.977 1.977 0 0 0-.955-.343c-.274-.031-.6-.03-.921-.03v2zm16.032.658c.123-.34.189-.516.248-.636.049-.097.048-.062-.009-.022l-1.147-1.638c-.315.22-.503.505-.635.77-.12.244-.229.545-.337.841l1.88.685zm.94-2.658c-.317 0-.636-.002-.906.029a1.978 1.978 0 0 0-.942.333L19.343 13c-.057.04-.09.028.018.016.133-.014.321-.016.682-.016v-2z" fill="#fff"/></svg>
